X:47
T: Der Koenigssohn
N: A0049
O: Europa, Mitteleuropa, Deutschland
N: Melodie bei Forster V. 1556 No. 11.
R: Romanze, Ballade, Lied
M: 4/2
L: 1/4
K: F
F2 | F2G2A2c2 | dBABG2G2 | F8 |
z2F2c2c2 | d4c2c2- | c2=B2c4 |
c4c2c2 | A3cB3A | G4z2
c2 | B2G2A2F2 | A3Bc2B2 | BAGFG4 | F6

@@@ Tune index: 47
